icons/law-16.svg

<svg xmlns="http://www.w3.org/2000/svg" width="16" height="16" viewBox="0 0 16 16"><path d="M8.75.75V2h.985c.304 0 .603.08.867.231l1.29.736c.038.022.08.033.124.033h2.234a.75.75 0 010 1.5h-.427l2.111 4.692a.75.75 0 01-.154.838l-.53-.53.529.531-.001.002-.002.002-.006.006-.006.005-.01.01-.045.04c-.21.176-.441.327-.686.45C14.556 10.78 13.88 11 13 11a4.498 4.498 0 01-2.023-.454 3.544 3.544 0 01-.686-.45l-.045-.04-.016-.015-.006-.006-.004-.004v-.001a.75.75 0 01-.154-.838L12.178 4.5h-.162c-.305 0-.604-.079-.868-.231l-1.29-.736a.245.245 0 00-.124-.033H8.75V13h2.5a.75.75 0 010 1.5h-6.5a.75.75 0 010-1.5h2.5V3.5h-.984a.245.245 0 00-.124.033l-1.289.737c-.265.15-.564.23-.869.23h-.162l2.112 4.692a.75.75 0 01-.154.838l-.53-.53.529.531-.001.002-.002.002-.006.006-.016.015-.045.04c-.21.176-.441.327-.686.45C4.556 10.78 3.88 11 3 11a4.498 4.498 0 01-2.023-.454 3.544 3.544 0 01-.686-.45l-.045-.04-.016-.015-.006-.006-.004-.004v-.001a.75.75 0 01-.154-.838L2.178 4.5H1.75a.75.75 0 010-1.5h2.234a.249.249 0 00.125-.033l1.288-.737c.265-.15.564-.23.869-.23h.984V.75a.75.75 0 011.5 0zm2.945 8.477c.285.135.718.273 1.305.273s1.02-.138 1.305-.273L13 6.327zm-10 0c.285.135.718.273 1.305.273s1.02-.138 1.305-.273L3 6.327z"/></svg>

<svg xmlns="http://www.w3.org/2000/svg" width="16" height="16" viewBox="0 0 16 16">
  <defs/>
  <path d="M8.75,0.75 L8.75,2 L9.735,2 C10.039,2 10.338,2.08 10.602,2.231 L11.892,2.967 C11.93,2.989 11.972,3 12.016,3 L14.25,3 C14.664,3 15,3.336 15,3.75 C15,4.164 14.664,4.5 14.25,4.5 L13.823,4.5 L15.934,9.192 C16.062,9.476 16,9.81 15.78,10.03 L15.25,9.5 L15.779,10.031 L15.778,10.033 L15.776,10.035 L15.77,10.041 L15.764,10.046 L15.754,10.056 L15.709,10.096 C15.499,10.272 15.268,10.423 15.023,10.546 C14.556,10.78 13.88,11 13,11 C12.299,11.008 11.607,10.853 10.977,10.546 C10.732,10.423 10.501,10.272 10.291,10.096 L10.246,10.056 L10.23,10.041 L10.224,10.035 L10.22,10.031 L10.22,10.03 C10,9.81 9.938,9.476 10.066,9.192 L12.178,4.5 L12.016,4.5 C11.711,4.5 11.412,4.421 11.148,4.269 L9.858,3.533 C9.82,3.511 9.778,3.5 9.734,3.5 L8.75,3.5 L8.75,13 L11.25,13 C11.664,13 12,13.336 12,13.75 C12,14.164 11.664,14.5 11.25,14.5 L4.75,14.5 C4.336,14.5 4,14.164 4,13.75 C4,13.336 4.336,13 4.75,13 L7.25,13 L7.25,3.5 L6.266,3.5 C6.222,3.5 6.18,3.511 6.142,3.533 L4.853,4.27 C4.588,4.42 4.289,4.5 3.984,4.5 L3.822,4.5 L5.934,9.192 C6.062,9.476 6,9.81 5.78,10.03 L5.25,9.5 L5.779,10.031 L5.778,10.033 L5.776,10.035 L5.77,10.041 L5.754,10.056 L5.709,10.096 C5.499,10.272 5.268,10.423 5.023,10.546 C4.556,10.78 3.88,11 3,11 C2.299,11.008 1.607,10.853 0.977,10.546 C0.732,10.423 0.501,10.272 0.291,10.096 L0.246,10.056 L0.23,10.041 L0.224,10.035 L0.22,10.031 L0.22,10.03 C0,9.81 -0.062,9.476 0.066,9.192 L2.178,4.5 L1.75,4.5 C1.336,4.5 1,4.164 1,3.75 C1,3.336 1.336,3 1.75,3 L3.984,3 C4.028,3 4.071,2.989 4.109,2.967 L5.397,2.23 C5.662,2.08 5.961,2 6.266,2 L7.25,2 L7.25,0.75 C7.25,0.336 7.586,0 8,0 C8.414,0 8.75,0.336 8.75,0.75 Z M11.695,9.227 C11.98,9.362 12.413,9.5 13,9.5 C13.587,9.5 14.02,9.362 14.305,9.227 L13,6.327 Z M1.695,9.227 C1.98,9.362 2.413,9.5 3,9.5 C3.587,9.5 4.02,9.362 4.305,9.227 L3,6.327 Z"/>
</svg>
